public/assets/images/icons/icon-heart.svg

<svg width="88" height="83" viewBox="0 0 88 83" fill="none" xmlns="http://www.w3.org/2000/svg">
<path d="M79.8854 36.1198C80.7099 42.1103 79.8279 48.2215 77.3379 53.7718C74.8478 59.322 70.8476 64.093 65.7834 67.5527C60.7191 71.0124 54.7901 73.0246 48.6575 73.365C42.5249 73.7054 36.43 72.3606 31.0526 69.4805L15.531 75.7967L20.2289 60.086C17.2801 56.084 15.3007 51.4651 14.4411 46.5804C13.5815 41.6956 13.8643 36.6735 15.2681 31.8956C16.6719 27.1177 19.1597 22.7098 22.5425 19.0066C25.9253 15.3035 30.1141 12.4026 34.7906 10.5244C39.4672 8.64626 44.5084 7.84017 49.5312 8.16742C54.5541 8.49467 59.4265 9.94664 63.7782 12.413C68.1298 14.8794 71.8463 18.2953 74.6452 22.4012C77.4441 26.5071 79.2517 31.195 79.9308 36.1086L79.8854 36.1198Z" fill="white"/>
<path d="M79.8848 36.1193C80.7024 42.1097 79.8283 48.2189 77.3587 53.7767C76.7464 55.1611 76.0484 56.5076 75.2689 57.8086C74.4429 59.0878 73.5384 60.3163 72.5605 61.4873C68.6532 66.2145 63.5054 69.7964 57.685 71.8379C56.2099 72.358 54.6969 72.7648 53.1597 73.0545C51.6554 73.3909 50.1266 73.6057 48.5887 73.6967C42.3838 74.1019 36.2009 72.7888 30.7391 69.9057L31.1628 69.9273L15.743 76.3291L14.6202 76.7974L14.96 75.6368L19.5632 59.9338L19.6963 60.4706C15.167 54.3252 12.9436 46.8097 13.4023 39.1964C13.861 31.5831 16.9736 24.3399 22.2133 18.6929C25.664 14.9663 29.9333 12.0667 34.69 10.2189C39.4071 8.33741 44.4927 7.55038 49.5512 7.91909C54.6097 8.2878 59.5049 9.80231 63.856 12.3448C68.1859 14.8426 71.8776 18.2795 74.6538 22.3973C77.43 26.5151 79.2185 31.2066 79.8848 36.1193ZM79.8848 36.1193C79.2239 31.2169 77.4272 26.5385 74.6335 22.4456C71.8398 18.3527 68.1239 14.9548 63.7729 12.5146C59.4219 10.0743 54.5523 8.65693 49.5403 8.372C44.5283 8.08707 39.5082 8.94221 34.8678 10.8713C30.2659 12.7557 26.1565 15.6533 22.8565 19.3408C19.5869 23.029 17.1706 27.3719 15.7772 32.0644C14.4189 36.7648 14.162 41.7001 15.026 46.4962C15.8917 51.282 17.8326 55.8086 20.7071 59.7452L20.8986 59.9985L20.8099 60.2896L16.116 75.9518L15.333 75.2594L30.9107 69.0401L31.123 68.9875L31.3266 69.0953C36.6102 71.9868 42.6176 73.3644 48.6755 73.0737C50.1867 73.018 51.6909 72.8305 53.1705 72.5136C54.6664 72.2616 56.1411 71.8961 57.5815 71.4204C60.4652 70.4677 63.2026 69.1233 65.7143 67.4261C68.2502 65.7515 70.5221 63.7161 72.4552 61.3868C74.461 59.103 76.0916 56.5249 77.2871 53.747C79.777 48.2054 80.6758 42.1065 79.8848 36.1193Z" fill="#263238"/>
<path d="M62.1755 43.342C59.7354 48.9962 56.0946 54.0767 51.4998 58.2391C45.502 56.7008 39.9202 53.906 35.1331 50.0443C28.8208 45.0242 26.6457 35.2748 32.9458 31.4816C39.9484 27.2768 46.3661 37.5258 46.3661 37.5258C46.3661 37.5258 47.3423 25.3651 55.4255 25.91C62.756 26.4041 65.3976 35.9587 62.1755 43.342Z" fill="#FF81AE"/>
</svg>

<svg xmlns="http://www.w3.org/2000/svg" width="88" height="83" fill="none"><path fill="#fff" d="M79.885 36.12a32.34 32.34 0 0 1-2.547 17.652 33.14 33.14 0 0 1-11.555 13.78 33.7 33.7 0 0 1-17.126 5.813 33.4 33.4 0 0 1-17.604-3.884L15.53 75.797l4.698-15.711a32.16 32.16 0 0 1-4.96-28.19 32.85 32.85 0 0 1 7.274-12.89 33.5 33.5 0 0 1 12.248-8.482 33.7 33.7 0 0 1 14.74-2.357 33.3 33.3 0 0 1 14.247 4.246 32.6 32.6 0 0 1 10.867 9.988 32.14 32.14 0 0 1 5.286 13.708z"/><path fill="#263238" d="M79.885 36.12a32.6 32.6 0 0 1-2.526 17.657 37 37 0 0 1-2.09 4.032 37 37 0 0 1-2.709 3.678 33.8 33.8 0 0 1-14.875 10.35c-1.475.521-2.988.928-4.525 1.218a29 29 0 0 1-4.571.642 33.56 33.56 0 0 1-17.85-3.791l.424.021-15.42 6.402-1.123.468.34-1.16 4.603-15.703.133.537a32.53 32.53 0 0 1-6.294-21.275c.459-7.613 3.572-14.856 8.811-20.503a33.6 33.6 0 0 1 12.477-8.474 33.55 33.55 0 0 1 14.861-2.3 33.1 33.1 0 0 1 14.305 4.426 32.74 32.74 0 0 1 10.798 10.052 32.3 32.3 0 0 1 5.23 13.722m0 0a31.8 31.8 0 0 0-5.252-13.674 32.2 32.2 0 0 0-10.86-9.931A32.9 32.9 0 0 0 49.54 8.372a33.3 33.3 0 0 0-14.672 2.5 32.8 32.8 0 0 0-12.012 8.469 33.6 33.6 0 0 0-7.079 12.723 31.7 31.7 0 0 0-.751 14.432 32.2 32.2 0 0 0 5.681 13.25l.192.252-.09.292-4.693 15.662-.783-.693 15.578-6.219.212-.053.204.108a32.86 32.86 0 0 0 17.348 3.979 26 26 0 0 0 4.496-.56 30 30 0 0 0 4.41-1.094 33 33 0 0 0 8.133-3.994 30.9 30.9 0 0 0 6.741-6.04 28.9 28.9 0 0 0 4.832-7.639 32.6 32.6 0 0 0 2.598-17.628"/><path fill="#FF81AE" d="M62.176 43.342A43.2 43.2 0 0 1 51.5 58.239a43.1 43.1 0 0 1-16.367-8.195c-6.312-5.02-8.487-14.77-2.187-18.562 7.002-4.205 13.42 6.044 13.42 6.044s.976-12.16 9.06-11.616c7.33.494 9.972 10.049 6.75 17.432"/></svg>
